assets/icons/qvision/content_paste.svg

<svg xmlns="http://www.w3.org/2000/svg" height="24" viewBox="0 0 24 24" width="24"><path d="M0 0h24v24H0z" fill="none"/><path d="M19 2h-4.18C14.4.84 13.3 0 12 0c-1.3 0-2.4.84-2.82 2H5c-1.1 0-2 .9-2 2v16c0 1.1.9 2 2 2h14c1.1 0 2-.9 2-2V4c0-1.1-.9-2-2-2zm-7 0c.55 0 1 .45 1 1s-.45 1-1 1-1-.45-1-1 .45-1 1-1zm7 18H5V4h2v3h10V4h2v16z"/></svg>

<svg width="24" height="24" viewBox="0 0 24 24" fill="none" xmlns="http://www.w3.org/2000/svg">
<g clip-path="url(#clip0_147_2119)">
<path d="M19 2H14.82C14.4 0.84 13.3 0 12 0C10.7 0 9.6 0.84 9.18 2H5C3.9 2 3 2.9 3 4V20C3 21.1 3.9 22 5 22H19C20.1 22 21 21.1 21 20V4C21 2.9 20.1 2 19 2ZM12 2C12.55 2 13 2.45 13 3C13 3.55 12.55 4 12 4C11.45 4 11 3.55 11 3C11 2.45 11.45 2 12 2ZM19 20H5V4H7V7H17V4H19V20Z" fill="#323232"/>
</g>
<defs>
<clipPath id="clip0_147_2119">
<rect width="24" height="24" fill="white"/>
</clipPath>
</defs>
</svg>
